X: 4675
T: Boyne Bridge, The
R: reel
M: 4/4
K: Aminor
E AAA ^c ee2|d2 ed ^cAAG|
EDDD GEEE|DEED ^cAA2|
E AAA ^c ee|dged ^cAA|
d eaged^cA|B^cAGED2||
E2|^FDDD GAAG|^FDD ^FE^cA2|
^FDDD GAAG|^FDE^CD2|
E2|^FDDD GAAG|^FDD ^FE^cA2|
^FAGBAB^cd|ed^cAG3||
^fdd ^fe^cAG|E^F^F DEAA2|
^fdd ^fe^cAG|EAGED2|
e2|^fdd ^fe^cAG|E^F^F DEAA2|
^FDDD GAAG|EAGE D2||

